X: 1152
T: İndirip Yerlere...
C: Cinuçen Tanrıkorur
O: Turkey
F: http://compmusic.upf.edu/node/140
N: huzzam--sarki--aksak--indirip_yerlere--cinucen_tanrikorur
N: makam= huzzam
N: form= sarki
N: usul= aksak = 9/8
M: 9/8
L: 1/16
K: C _1/4B _3/4e ^3/4f 
Q: 1/4=108
%%MIDI tuningsystem comma53
B4 zc2d .d4 e3/2d/ef {g}(3fed | {e}d2 c/B/cd2 e2d3/2c/ cBc2 {d}c2d2  | 
w:  *  İn di rip  yer  |  *  *  *  *  *  le re  ben *  *  *  den   | 
ef{g}(3fed d3/2c/cB B4 d2{e}d2 (3eed | \
w:  *  *  *  *  *  *  ka *  çı *  rıp  göz  | 
da gff3/2e/ (3eedd4d2 {f}(3edc(3ccB  | 
w:  *  *  *  *  *  *  le ri *  ni   SAZ  | 
B4 zc2d .d4 e3/2d/ef {g}(3fed | {e}d2 c/B/cd2 e2d3/2c/ cBc2 {d}c2d2  | 
w:  *  İn di rip  yer  |  *  *  *  *  *  le re  ben *  *  *  den   | 
ef{g}(3fed d3/2c/cB B4 d2{e}d2 (3eed | \
w:  *  *  *  *  *  *  ka *  çı *  rıp  göz  | 
da gff3/2e/ (3eedd4f2 ^efg{a}g/f/  | 
w:  *  *  *  *  *  *  le ri *  ni   SAZ  | 
f6ff f4 g4 gf | f3/2e/ fgfe (3eedd4e4(3dcd  | 
w:  *  Ba na  top rak  |  *  *  *  *  la *  rı  *  *  kıs kan  | 
e3/2d/cd d/e3/2e{f}e {f}e4 d2{c'}_b2 ag | \
w:  *  *  *  *  *  *  dı *  ra *  rak  geç  | 
gf2e(3feg (3fede4e3/2d/ cde{g}f/e/  | 
w:  *  *  *  ti  *  *  yi *  *  ne   SAZ  | 
e4 z2ee e3d f4 ed | d3c(3edc cBB4c4(3B^AB  | 
w:  *  Ba na  top *  rak  |  *  *  la *  *  rı  *  kıs kan  | 
c3/2B/^AB A/c3/2c{d}c {d}c4 B2{g}=f2 _1/4ed | \
w:  *  *  *  *  *  *  dı *  ra *  rak  geç  | 
(3ddc c_1/4e(3dcd {e}(3dcBB4a2 {b}ag{b}(3c'_ba  | 
w:  *  *  *  *  *  ti  *  *  *  yi *  *  ne   SAZ  | 
a6ga a3g _b4 ad' | c'_b agf/^e/f gaa4{c'}.b2 .a2.g2  | 
w:  *  Be ni  bir  *  yır  |  *  *  *  *  *  *  *  tı cı  kuş  *  san  | 
=fg{a}gf (3f_1/4ef{g}(3fed d4 ^3/4f2{g}f2 {a}g2 | \
w:  *  *  *  *  *  dı  *  *  *  da  *  *  ar dın  | 
f2 ^ed.d2 .e2.f4f2 efg{a}g/=f/  | 
w:  *  *  *  da  du yup   SAZ  | 
f6ff f4 g4 gf | f3/2e/ fgfe (3eedd4e4(3dcd  | 
w:  *  Ba na  top rak  |  *  *  *  *  la *  rı  *  *  kıs kan  | 
e3/2d/cd d/e3/2e{f}e {f}e4 d2{c'}_b2 ag | \
w:  *  *  *  *  *  *  dı *  ra *  rak  geç  | 
gf2e(3feg (3fede4e3/2d/ cde{g}f/e/  | 
w:  *  *  *  ti  *  *  yi *  *  ne   SAZ  | 
e4 z2ee e3d f4 ed | d3c(3edc cBB4c4(3B^AB  | 
w:  *  Ba na  top *  rak  |  *  *  la *  *  rı  *  kıs kan  | 
c3/2B/^AB A/c3/2c{d}c {d}c4 B2{g}=f2 _1/4ed | \
w:  *  *  *  *  *  *  dı *  ra *  rak  geç  | 
(3ddc c_1/4e(3dcd {e}(3dcBB4|
w:  *  *  *  *  *  ti  *  *  *  yi *  *  ne    | 


